dist/assets/images/social/fb.svg

<svg width="28" height="28" viewBox="0 0 28 28" fill="none" xmlns="http://www.w3.org/2000/svg">
<path d="M24.5 0H3.5C1.56975 0 0 1.56975 0 3.5V24.5C0 26.4303 1.56975 28 3.5 28H14V18.375H10.5V14H14V10.5C14 7.60025 16.3503 5.25 19.25 5.25H22.75V9.625H21C20.034 9.625 19.25 9.534 19.25 10.5V14H23.625L21.875 18.375H19.25V28H24.5C26.4303 28 28 26.4303 28 24.5V3.5C28 1.56975 26.4303 0 24.5 0Z" fill="#363636"/>
</svg>

<svg width="28" height="28" fill="none" xmlns="http://www.w3.org/2000/svg"><path d="M24.5 0h-21C1.57 0 0 1.57 0 3.5v21C0 26.43 1.57 28 3.5 28H14v-9.625h-3.5V14H14v-3.5c0-2.9 2.35-5.25 5.25-5.25h3.5v4.375H21c-.966 0-1.75-.091-1.75.875V14h4.375l-1.75 4.375H19.25V28h5.25c1.93 0 3.5-1.57 3.5-3.5v-21C28 1.57 26.43 0 24.5 0z" fill="#363636"/></svg>
